X:586
T:Billy Rush's own
R:Jig
O:USA
D:Brendan Mulvihill: The Flax in Bloom
S:Brendan Mulvihill: The Flax in Bloom
Z:Transcription, simplification, chords:Mike Long
M:6/8
L:1/8
K:C
"C"~G2G GEG|"F"ABc "G"dcd|"C"ece "F"faf|"C"ege "G"dcA|\
"C"~G2G GEG|"F"ABc "G"dcd|"C"ece "G"fed|"C"ecA c3:|
"C"~e3  edc|"F"fed "C"edc|"G"dfe dcd|"C"egg "G"fed|\
"C"~e3  cee|"F"fed "C"edc|"G"~d3 dcd|[1 "C"ecA c3:|[2 "F"edc dcA|]
